images/贷款项目/u3367.svg

﻿<?xml version="1.0" encoding="utf-8"?>
<svg version="1.1" xmlns:xlink="http://www.w3.org/1999/xlink" width="59px" height="43px" xmlns="http://www.w3.org/2000/svg">
  <g transform="matrix(1 0 0 1 -1769 -1407 )">
    <path d="M 39.0315729166667 14.0670066983315  C 38.1621130952381 12.8474008037998  36.7672723214286 12.8554174156619  35.9035193452381 14.0670066983315  L 22.5543303571429 32.7920105224698  L 16.0969910714286 23.62623086104  C 15.2414910714286 22.4119393496529  13.8545520833333 22.4120294239434  12.9990520833333 23.62623086104  L 1.09501190476189 40.5236273291925  C 0.239511904761917 41.7379188405797  0.749967261904793 42.7223407623918  2.23506398809528 43  L 56.7751205357143 43  C 58.2610952380952 42.7223407623918  58.7601369047619 41.7400806235537  57.8962961309524 40.5284012665936  L 39.0315729166667 14.0670066983315  Z M 19.4505430147059 5.61886608695651  C 19.4505430147059 2.52557730369829  16.9872224527134 0.0179712872975267  13.9485625459559 0.0179712872975267  C 10.9099026391984 0.0179712872975267  8.44658207720586 2.52557730369829  8.44658207720586 5.61886608695651  C 8.44658207720586 8.71215487021478  10.9099026391984 11.2197608866155  13.9485625459559 11.2197608866155  C 16.9872224527134 11.2197608866155  19.4505430147059 8.71215487021478  19.4505430147059 5.61886608695651  Z " fill-rule="nonzero" fill="#748aa1" stroke="none" transform="matrix(1 0 0 1 1769 1407 )" />
  </g>
</svg>

<svg xmlns="http://www.w3.org/2000/svg" width="59" height="43"><path fill="#748aa1" d="M39.032 14.067c-.87-1.22-2.265-1.212-3.128 0l-13.35 18.725-6.457-9.166c-.856-1.214-2.242-1.214-3.098 0L1.095 40.524C.24 41.738.75 42.722 2.235 43h54.54c1.486-.278 1.985-1.26 1.121-2.472zM19.45 5.619c0-3.093-2.464-5.601-5.502-5.601-3.04 0-5.502 2.508-5.502 5.6 0 3.094 2.463 5.602 5.502 5.602s5.502-2.508 5.502-5.601"/></svg>
